X:1
T:Title
%%score 1 2
L:1/8
Q:1/4=82
M:3/8
K:C
V:1 treble nm="Grand Piano, Soprano"
V:2 bass nm="Choir Pad, O Day Wo Wondrous"
V:1
 [EG][Ec]>[EG] | [FB]2 [FA] | [DF][FB]>[DF] | [_EA]2 [=EG] | [CE][EA]>[CE] | [DG]2 [DF] | %6
w: By~Harold~Marlow * *||||||
 [B,D][B,G]>[B,F] | [CE]3 | [EG][Ec]>[EG] | [FB]2 [FA] | [DF][FB]>[DF] | [_EA]2 [=EG] | %12
w: ||||||
 [^CE][CA]>[CE] | [DG]2 [DF] | [B,D][B,E]>[B,D] | C3 | [CE]3 | [EA]3 | [CE][EA]>[CE] | %19
w: |||||||
 [B,F]2 [B,G] | [B,F]3 | [FB]3 | [DF][FB]>[FA] | [EG]2 z | [EG]3 | [Ec]3 | [Ge][Gc]>[FA] | %27
w: ||||||||
 [EG]2 [EG] | [FB]3 | [_EA]3 | [FG][FA]>[FB] | [Ec]3- | [Ec]3- | [Ec] z z |] %34
w: |||||||
V:2
 [C,G,][C,G,]>[C,G,] | [D,G,]2 [D,G,] | [G,,G,][G,,G,]>[G,,G,] | [C,^F,]2 [C,G,] | %4
 [C,G,][C,G,]>[C,G,] | [B,,G,]2 [B,,G,] | [G,,G,][G,,G,]>[G,,G,] | [C,G,]3 | [C,G,][C,G,]>[C,G,] | %9
 [D,G,]2 [D,G,] | [G,,G,][G,,G,]>[G,,G,] | [C,^F,]2 [C,F,] | [A,,A,][A,,A,]>[A,,A,] | %13
 [D,A,]2 [D,A,] | [G,,G,][G,,G,]>[G,,F,] | [C,E,]3 | [C,G,]3 | [C,C]3 | [C,G,][C,C]>[C,G,] | %19
 [D,G,]2 [D,G,] | [G,,G,]3 | [D,G,]3 | [G,,G,][G,,G,]>[G,,G,] | [C,G,]2 z | [C,G,]3 | [C,G,]3 | %26
 [C,C][E,C]>[F,C] | [C,C]2 [C,C] | [F,C]3 | [^F,C]3 | [G,B,][G,C]>[G,D] | [C,C]3- | [C,C]3- | %33
 [C,C] z z |] %34

